!!!OTL: 2117. St. Katharina.
!!!ARE: Europa, Mitteleuropa, Deutschland, Schlesien
!!!SCT: E2117
!!!TXL: @@DE
!!!YEM: Copyright 1995, estate of Helmut Schaffrath.
**kern	**text
*ICvox	*
*M4/4	*
*met(c)	*
*k[f#]	*
*G:	*
!LO:TX:a:t=Sehr mäßi.	!
!LO:TX:a:t=Aus Schleſien.	!
{4d	Als
=1	=1
4g	Sanct
8g	Ka-
8g	-tha-
4g	-rina
(<8a	ei-
8cc)	-ne
=2	=2
4b	Hei-
4a	-din
4g	war,
8r}	.
{8g	von
=3	=3
4a	heid-
8a	-ni-
8a	-ſchen
4a	El-
8b	-tern
8dd	ge-
=4	=4
4cc	-bo
4b	ren
4a	war,
8r}	.
{8dd	Sanct
=5	=5
8b/	Ka-
8g	-iha-
8b	-ri-
8dd	-na
4.cc	ſpricht:
8cc	"Das
=6	=6
4b	thu
8ddL	ich
8bJ	.
4a	nicht,
8r}	.
{8d	den
=7	=7
4g	heid-
8b/	-ni-
8g	-ſchen
4a	Glau-
8dd	-ben
8cc	be-
=8	=8
4b/	-gehr
4a	ich
4g}	nicht."
==	==
!!!AGN: geistlich, Heiligen - Lied, Legende
!!!ONB: ESAC (Essen Associative Code) Database: ERK3
!!!AMT: simple quadruple
!!!AIN: vox
!!!EED: Helmut Schaffrath
!!!EEV: 1.0
!!!RDF**kern: <= below
!!!GTL: 4. Katholische Lieder: c) Heiligenlieder (Rufe und Legenden.)
!!!URL-scan: https://rosdok.uni-rostock.de/mcrviewer/recordIdentifier/rosdok_ppn745177999/iview2/phys_0813.iview2?x=188.96815741117916&y=71.04884685296565&scale=0.7014306698522887&rotation=0&layout=singlePageLayout
!!!ENC: Anna Maria Matuszewska
!!!EEV: 2025/14/01
*-	*-
